public/style/workarea/images/exe-text-logo.svg

<svg fill="none" height="54" viewBox="0 0 350 54" width="350" xmlns="http://www.w3.org/2000/svg"><path d="m93.4288 43.2715c-8.9749 0-15.5528-6.4073-15.5528-15.245s6.5779-15.245 15.5528-15.245c9.9782 0 16.6122 7.6225 15.2742 17.8411h-22.6883c.8919 3.4246 3.6234 5.4683 7.4141 5.4683 2.5642 0 4.794-.9943 5.9647-2.5409h8.6405c-2.063 5.9655-7.749 9.7215-14.6052 9.7215zm-7.3583-18.0068h14.8285c-.892-3.2036-3.5123-5.3026-7.4702-5.3026-3.7349 0-6.4107 2.0437-7.3583 5.3026z" fill="#132032"/><path d="m41.8882 7.59012c1.6658 0 3.4451.60573 5.338 1.81719 1.8551 1.17359 4.4105 3.25579 7.6663 6.24659 5.6031-4.6944 8.5917-5.75184 11.4689-5.75184 1.8551 0 3.4451.51104 4.7702 1.53324 2.4408 1.8666 2.848 6.1294 1.1379 8.932-1.3629 2.2336-3.1423 4.6376-5.338 7.212 4.9972 5.6787 7.7885 9.7647 7.7885 12.5663 0 2.0064-.6247 3.5397-1.874 4.5997-1.2872 1.0601-2.8961 1.5901-4.8269 1.5901-2.9151 0-7.4857-2.2121-13.1266-6.9443-3.2179 2.8393-5.7544 4.808-7.6095 5.9059-1.8929 1.0978-3.6912 1.6468-5.3948 1.6468-2.2715 0-4.0319-.7382-5.2812-2.2147-1.2872-1.5144-1.9308-3.2937-1.9308-5.338 0-1.3251.1893-2.4798.5679-3.4641s1.079-2.0822 2.1011-3.2936c1.0222-1.2494 2.6501-2.9719 4.8837-5.1677-2.1579-2.1958-3.7479-3.9562-4.7701-5.2812-1.06-1.3629-1.7793-2.5555-2.1579-3.5776-.4165-1.0222-.6247-2.1579-.6247-3.4073 0-1.325.284-2.5554.8518-3.6911.5679-1.1737 1.4008-2.12011 2.4987-2.83942s2.3851-1.07896 3.8615-1.07896z" fill="#26ddc7"/><g fill="#132032"><path d="m16.0697 43.2715c-8.97496 0-15.552856-6.4073-15.552856-15.245s6.577896-15.245 15.552856-15.245c9.9783 0 16.6119 7.6225 15.2741 17.8411h-22.6882c.89191 3.4246 3.6234 5.4683 7.4141 5.4683 2.5642 0 4.794-.9943 5.9647-2.5409h8.6404c-2.0625 5.9655-7.7485 9.7215-14.6051 9.7215zm-7.35836-18.0068h14.82816c-.8919-3.2036-3.5119-5.3026-7.4698-5.3026-3.7349 0-6.4107 2.0437-7.35836 5.3026z"/><path d="m334.05 53.0768c-2.809 0-5.125-.3227-6.948-.968-1.784-.6453-3.208-1.47-4.271-2.4738-1.063-.968-1.841-1.936-2.335-2.904-.494-.9681-.816-1.7927-.968-2.4739-.114-.6453-.171-.968-.171-.968h8.429s.057.1614.171.484c.151.3586.436.7529.854 1.1832.417.466 1.025.8604 1.822 1.1831.835.3585 1.937.5378 3.303.5378 2.354 0 4.082-.6274 5.183-1.8823 1.139-1.2548 1.708-2.904 1.708-4.9476v-3.0116h-.398c-.38.5737-.949 1.2011-1.709 1.8823-.759.6812-1.727 1.2548-2.904 1.7209s-2.601.6991-4.272.6991c-2.24 0-4.195-.3944-5.865-1.1831-1.671-.8246-3.076-1.9181-4.215-3.2805-1.101-1.3624-1.936-2.8861-2.506-4.5712-.531-1.685-.797-3.4239-.797-5.2165 0-1.7567.266-3.4777.797-5.1627.57-1.7209 1.405-3.2626 2.506-4.625 1.139-1.3623 2.544-2.4379 4.215-3.2267 1.67-.8246 3.625-1.2369 5.865-1.2369 1.671 0 3.095.251 4.272.7529 1.177.4661 2.145 1.0398 2.904 1.7209.797.6454 1.367 1.2728 1.709 1.8823h.398v-3.8183h8.657v26.6741c0 2.3663-.551 4.5533-1.652 6.561s-2.79 3.6211-5.068 4.84c-2.278 1.219-5.183 1.8285-8.714 1.8285zm-.114-18.3922c1.595 0 2.905-.3765 3.93-1.1294 1.063-.7529 1.86-1.7209 2.392-2.904.531-1.219.797-2.4738.797-3.7645 0-1.3265-.266-2.5813-.797-3.7645-.532-1.1831-1.329-2.1511-2.392-2.904-1.025-.7529-2.335-1.1294-3.93-1.1294-1.556 0-2.866.3765-3.929 1.1294-1.025.7529-1.804 1.7209-2.335 2.904-.532 1.1832-.798 2.438-.798 3.7645 0 1.2907.266 2.5455.798 3.7645.531 1.1831 1.31 2.1511 2.335 2.904 1.063.7529 2.373 1.1294 3.929 1.1294z"/><path d="m292.065 25.8225v17.4553h-8.759v-30.193h8.348v5.3271h.37c.699-1.7561 1.871-3.1451 3.516-4.1673 1.644-1.0353 3.639-1.5529 5.983-1.5529 2.193 0 4.105.4587 5.736 1.376s2.899 2.2278 3.804 3.9314c.904 1.6905 1.357 3.7086 1.357 6.0543v19.2244h-8.759v-17.7305c.014-1.8477-.48-3.2892-1.48-4.3245-1.001-1.0484-2.379-1.5726-4.133-1.5726-1.179 0-2.221.2425-3.125.7274-.891.4848-1.59 1.1925-2.097 2.1229-.494.9173-.747 2.0247-.761 3.322z"/><path d="m266.028 5.72469c0-2.7188 2.04-4.757893 4.928-4.757893 2.832 0 4.871 2.039093 4.871 4.757893 0 2.71879-2.039 4.70121-4.871 4.70121-2.888 0-4.928-1.98242-4.928-4.70121z"/><path d="m238.687 25.8225v17.4553h-8.759v-30.193h8.348v5.3271h.37c.699-1.7561 1.871-3.1451 3.515-4.1673 1.645-1.0353 3.64-1.5529 5.984-1.5529 2.193 0 4.105.4587 5.736 1.376s2.899 2.2278 3.804 3.9314c.904 1.6905 1.357 3.7086 1.357 6.0543v19.2244h-8.759v-17.7305c.014-1.8477-.48-3.2892-1.48-4.3245-1.001-1.0484-2.379-1.5726-4.133-1.5726-1.179 0-2.221.2425-3.125.7274-.891.4848-1.59 1.1925-2.098 2.1229-.493.9173-.747 2.0247-.76 3.322z"/><path d="m205.092 43.2776v-30.02h7.534v3.3418c2.039-2.4922 5.211-3.795 8.496-3.795 1.133 0 2.322.17 3.455.4532v7.4767c-1.246-.2266-2.379-.3965-3.455-.3965-4.928 0-7.93 2.8887-7.93 7.8165v15.1233z"/><path d="m179.787 43.9016c-9.006 0-15.124-6.797-15.124-15.6331 0-9.1759 6.401-15.6331 15.124-15.6331 3.851 0 7.476 1.3594 10.025 3.6251v-3.002h7.024v30.02h-7.024v-3.002c-2.605 2.2657-6.287 3.6251-10.025 3.6251zm-6.911-15.6331c0 4.7013 3.342 8.0431 7.987 8.0431 4.588 0 7.93-3.3418 7.93-8.0431 0-4.7012-3.342-8.0431-7.93-8.0431-4.645 0-7.987 3.3419-7.987 8.0431z"/><path d="m145.011 43.9016c-9.119 0-15.803-6.5704-15.803-15.6331 0-9.0626 6.684-15.6331 15.803-15.6331 10.139 0 16.879 7.8166 15.52 18.2953h-23.054c.907 3.5117 3.682 5.6075 7.534 5.6075 2.605 0 4.871-1.0196 6.06-2.6055h8.78c-2.096 6.1173-7.873 9.9689-14.84 9.9689zm-7.477-18.4652h15.067c-.906-3.2852-3.569-5.4376-7.59-5.4376-3.795 0-6.514 2.0958-7.477 5.4376z"/><path d="m122.975 43.2778h-8.1v-38.60664l8.1-1.04177z"/><path d="m274.974 43.2716h-8.092v-29.2258l8.092-.7886z"/></g></svg>

<svg width="350" height="54" viewBox="0 0 350 54" fill="none" xmlns="http://www.w3.org/2000/svg">
<path d="M93.4288 43.2715C84.4539 43.2715 77.876 36.8642 77.876 28.0265C77.876 19.1888 84.4539 12.7815 93.4288 12.7815C103.407 12.7815 110.041 20.404 108.703 30.6226H86.0147C86.9066 34.0472 89.6381 36.0909 93.4288 36.0909C95.993 36.0909 98.2228 35.0966 99.3935 33.55H108.034C105.971 39.5155 100.285 43.2715 93.4288 43.2715ZM86.0705 25.2647H100.899C100.007 22.0611 97.3867 19.9621 93.4288 19.9621C89.6939 19.9621 87.0181 22.0058 86.0705 25.2647Z" fill="#132032"/>
<path d="M41.8882 7.59012C43.554 7.59012 45.3333 8.19585 47.2262 9.40731C49.0813 10.5809 51.6367 12.6631 54.8925 15.6539C60.4956 10.9595 63.4842 9.90206 66.3614 9.90206C68.2165 9.90206 69.8065 10.4131 71.1316 11.4353C73.5724 13.3019 73.9796 17.5647 72.2695 20.3673C70.9066 22.6009 69.1272 25.0049 66.9315 27.5793C71.9287 33.258 74.72 37.344 74.72 40.1456C74.72 42.152 74.0953 43.6853 72.846 44.7453C71.5588 45.8054 69.9499 46.3354 68.0191 46.3354C65.104 46.3354 60.5334 44.1233 54.8925 39.3911C51.6746 42.2304 49.1381 44.1991 47.283 45.297C45.3901 46.3948 43.5918 46.9438 41.8882 46.9438C39.6167 46.9438 37.8563 46.2056 36.607 44.7291C35.3198 43.2147 34.6762 41.4354 34.6762 39.3911C34.6762 38.066 34.8655 36.9113 35.2441 35.927C35.6227 34.9427 36.3231 33.8448 37.3452 32.6334C38.3674 31.384 39.9953 29.6615 42.2289 27.4657C40.071 25.2699 38.481 23.5095 37.4588 22.1845C36.3988 20.8216 35.6795 19.629 35.3009 18.6069C34.8844 17.5847 34.6762 16.449 34.6762 15.1996C34.6762 13.8746 34.9602 12.6442 35.528 11.5085C36.0959 10.3348 36.9288 9.38839 38.0267 8.66908C39.1246 7.94977 40.4118 7.59012 41.8882 7.59012Z" fill="#26DDC7"/>
<path d="M16.0697 43.2715C7.09474 43.2715 0.516844 36.8642 0.516844 28.0265C0.516844 19.1888 7.09474 12.7815 16.0697 12.7815C26.048 12.7815 32.6816 20.404 31.3438 30.6226H8.6556C9.54751 34.0472 12.279 36.0909 16.0697 36.0909C18.6339 36.0909 20.8637 35.0966 22.0344 33.55H30.6748C28.6123 39.5155 22.9263 43.2715 16.0697 43.2715ZM8.71134 25.2647H23.5395C22.6476 22.0611 20.0276 19.9621 16.0697 19.9621C12.3348 19.9621 9.659 22.0058 8.71134 25.2647Z" fill="#132032"/>
<path d="M334.05 53.0768C331.241 53.0768 328.925 52.7541 327.102 52.1088C325.318 51.4635 323.894 50.6388 322.831 49.635C321.768 48.667 320.99 47.699 320.496 46.731C320.002 45.7629 319.68 44.9383 319.528 44.2571C319.414 43.6118 319.357 43.2891 319.357 43.2891H327.786C327.786 43.2891 327.843 43.4505 327.957 43.7731C328.108 44.1317 328.393 44.526 328.811 44.9563C329.228 45.4223 329.836 45.8167 330.633 46.1394C331.468 46.4979 332.57 46.6772 333.936 46.6772C336.29 46.6772 338.018 46.0498 339.119 44.7949C340.258 43.5401 340.827 41.8909 340.827 39.8473V36.8357H340.429C340.049 37.4094 339.48 38.0368 338.72 38.718C337.961 39.3992 336.993 39.9728 335.816 40.4389C334.639 40.905 333.215 41.138 331.544 41.138C329.304 41.138 327.349 40.7436 325.679 39.9549C324.008 39.1303 322.603 38.0368 321.464 36.6744C320.363 35.312 319.528 33.7883 318.958 32.1032C318.427 30.4182 318.161 28.6793 318.161 26.8867C318.161 25.13 318.427 23.409 318.958 21.724C319.528 20.0031 320.363 18.4614 321.464 17.099C322.603 15.7367 324.008 14.6611 325.679 13.8723C327.349 13.0477 329.304 12.6354 331.544 12.6354C333.215 12.6354 334.639 12.8864 335.816 13.3883C336.993 13.8544 337.961 14.4281 338.72 15.1092C339.517 15.7546 340.087 16.382 340.429 16.9915H340.827V13.1732H349.484V39.8473C349.484 42.2136 348.933 44.4006 347.832 46.4083C346.731 48.416 345.042 50.0294 342.764 51.2483C340.486 52.4673 337.581 53.0768 334.05 53.0768ZM333.936 34.6846C335.531 34.6846 336.841 34.3081 337.866 33.5552C338.929 32.8023 339.726 31.8343 340.258 30.6512C340.789 29.4322 341.055 28.1774 341.055 26.8867C341.055 25.5602 340.789 24.3054 340.258 23.1222C339.726 21.9391 338.929 20.9711 337.866 20.2182C336.841 19.4653 335.531 19.0888 333.936 19.0888C332.38 19.0888 331.07 19.4653 330.007 20.2182C328.982 20.9711 328.203 21.9391 327.672 23.1222C327.14 24.3054 326.874 25.5602 326.874 26.8867C326.874 28.1774 327.14 29.4322 327.672 30.6512C328.203 31.8343 328.982 32.8023 330.007 33.5552C331.07 34.3081 332.38 34.6846 333.936 34.6846Z" fill="#132032"/>
<path d="M292.065 25.8225V43.2778H283.306V13.0848H291.654V18.4119H292.024C292.723 16.6558 293.895 15.2668 295.54 14.2446C297.184 13.2093 299.179 12.6917 301.523 12.6917C303.716 12.6917 305.628 13.1504 307.259 14.0677C308.89 14.985 310.158 16.2955 311.063 17.9991C311.967 19.6896 312.42 21.7077 312.42 24.0534V43.2778H303.661V25.5473C303.675 23.6996 303.181 22.2581 302.181 21.2228C301.18 20.1744 299.802 19.6502 298.048 19.6502C296.869 19.6502 295.827 19.8927 294.923 20.3776C294.032 20.8624 293.333 21.5701 292.826 22.5005C292.332 23.4178 292.079 24.5252 292.065 25.8225Z" fill="#132032"/>
<path d="M266.028 5.72469C266.028 3.00589 268.068 0.966797 270.956 0.966797C273.788 0.966797 275.827 3.00589 275.827 5.72469C275.827 8.44348 273.788 10.4259 270.956 10.4259C268.068 10.4259 266.028 8.44348 266.028 5.72469Z" fill="#132032"/>
<path d="M238.687 25.8225V43.2778H229.928V13.0848H238.276V18.4119H238.646C239.345 16.6558 240.517 15.2668 242.161 14.2446C243.806 13.2093 245.801 12.6917 248.145 12.6917C250.338 12.6917 252.25 13.1504 253.881 14.0677C255.512 14.985 256.78 16.2955 257.685 17.9991C258.589 19.6896 259.042 21.7077 259.042 24.0534V43.2778H250.283V25.5473C250.297 23.6996 249.803 22.2581 248.803 21.2228C247.802 20.1744 246.424 19.6502 244.67 19.6502C243.491 19.6502 242.449 19.8927 241.545 20.3776C240.654 20.8624 239.955 21.5701 239.447 22.5005C238.954 23.4178 238.7 24.5252 238.687 25.8225Z" fill="#132032"/>
<path d="M205.092 43.2776V13.2576H212.626V16.5994C214.665 14.1072 217.837 12.8044 221.122 12.8044C222.255 12.8044 223.444 12.9744 224.577 13.2576V20.7343C223.331 20.5077 222.198 20.3378 221.122 20.3378C216.194 20.3378 213.192 23.2265 213.192 28.1543V43.2776H205.092Z" fill="#132032"/>
<path d="M179.787 43.9016C170.781 43.9016 164.663 37.1046 164.663 28.2685C164.663 19.0926 171.064 12.6354 179.787 12.6354C183.638 12.6354 187.263 13.9948 189.812 16.2605V13.2585H196.836V43.2785H189.812V40.2765C187.207 42.5422 183.525 43.9016 179.787 43.9016ZM172.876 28.2685C172.876 32.9698 176.218 36.3116 180.863 36.3116C185.451 36.3116 188.793 32.9698 188.793 28.2685C188.793 23.5673 185.451 20.2254 180.863 20.2254C176.218 20.2254 172.876 23.5673 172.876 28.2685Z" fill="#132032"/>
<path d="M145.011 43.9016C135.892 43.9016 129.208 37.3312 129.208 28.2685C129.208 19.2059 135.892 12.6354 145.011 12.6354C155.15 12.6354 161.89 20.452 160.531 30.9307H137.477C138.384 34.4424 141.159 36.5382 145.011 36.5382C147.616 36.5382 149.882 35.5186 151.071 33.9327H159.851C157.755 40.05 151.978 43.9016 145.011 43.9016ZM137.534 25.4364H152.601C151.695 22.1512 149.032 19.9988 145.011 19.9988C141.216 19.9988 138.497 22.0946 137.534 25.4364Z" fill="#132032"/>
<path d="M122.975 43.2778H114.875V4.67116L122.975 3.62939V43.2778Z" fill="#132032"/>
<path d="M274.974 43.2716H266.882V14.0458L274.974 13.2572V43.2716Z" fill="#132032"/>
</svg>
